_includes/icons/color-tv.svg

<svg fill="#666" height="50" viewBox="0 0 48 48" width="50" xmlns="http://www.w3.org/2000/svg"><path d="m21 31h6v5h-6z" fill="#455a64"/><path d="m35 37h-22s0-2 2-2h18c2 0 2 2 2 2z" fill="#455a64"/><path d="m6 11h36v21h-36z" fill="#546e7a"/><path d="m8 13h32v17h-32z" fill="#bbdefb"/></svg>

<svg xmlns="http://www.w3.org/2000/svg" viewBox="0 0 48 48" width="50" height="50" fill="#666"><path d="M 21 31 L 27 31 L 27 36 L 21 36 Z" fill="#455a64"/><path d="M 35 37 L 13 37 C 13 37 13 35 15 35 C 17 35 31 35 33 35 C 35 35 35 37 35 37 Z" fill="#455a64"/><path d="M 6 11 L 42 11 L 42 32 L 6 32 Z" fill="#546e7a"/><path d="M 8 13 L 40 13 L 40 30 L 8 30 Z" fill="#bbdefb"/></svg>
